assets/img/braze_icons/rss-01.svg

<svg fill="none" height="24" viewBox="0 0 24 24" width="24" xmlns="http://www.w3.org/2000/svg"><g clip-rule="evenodd" fill="#801ed7" fill-rule="evenodd"><path d="m3 11c0-.5523.44772-1 1-1 2.65216 0 5.1957 1.0536 7.0711 2.9289 1.8753 1.8754 2.9289 4.4189 2.9289 7.0711 0 .5523-.4477 1-1 1s-1-.4477-1-1c0-2.1217-.8429-4.1566-2.34315-5.6569-1.50029-1.5002-3.53512-2.3431-5.65685-2.3431-.55228 0-1-.4477-1-1z"/><path d="m3 4c0-.55228.44772-1 1-1 4.50868 0 8.8327 1.79107 12.0208 4.97919 3.1881 3.18811 4.9792 7.51211 4.9792 12.02081 0 .5523-.4477 1-1 1s-1-.4477-1-1c0-3.9782-1.5804-7.7936-4.3934-10.6066-2.813-2.81305-6.62835-4.3934-10.6066-4.3934-.55228 0-1-.44772-1-1z"/><path d="m3 19c0-1.1046.89543-2 2-2s2 .8954 2 2-.89543 2-2 2-2-.8954-2-2z"/></g></svg>

<svg width="24" height="24" viewBox="0 0 24 24" fill="none" xmlns="http://www.w3.org/2000/svg">
<path fill-rule="evenodd" clip-rule="evenodd" d="M3 11C3 10.4477 3.44772 10 4 10C6.65216 10 9.1957 11.0536 11.0711 12.9289C12.9464 14.8043 14 17.3478 14 20C14 20.5523 13.5523 21 13 21C12.4477 21 12 20.5523 12 20C12 17.8783 11.1571 15.8434 9.65685 14.3431C8.15656 12.8429 6.12173 12 4 12C3.44772 12 3 11.5523 3 11Z" fill="#801ED7"/>
<path fill-rule="evenodd" clip-rule="evenodd" d="M3 4C3 3.44772 3.44772 3 4 3C8.50868 3 12.8327 4.79107 16.0208 7.97919C19.2089 11.1673 21 15.4913 21 20C21 20.5523 20.5523 21 20 21C19.4477 21 19 20.5523 19 20C19 16.0218 17.4196 12.2064 14.6066 9.3934C11.7936 6.58035 7.97825 5 4 5C3.44772 5 3 4.55228 3 4Z" fill="#801ED7"/>
<path fill-rule="evenodd" clip-rule="evenodd" d="M3 19C3 17.8954 3.89543 17 5 17C6.10457 17 7 17.8954 7 19C7 20.1046 6.10457 21 5 21C3.89543 21 3 20.1046 3 19Z" fill="#801ED7"/>
</svg>
